X: 62
T: No_66_Hunting_Song.krn
N: Derived from No_66_Hunting_Song.krn
%%abc-version 2.0
%%abcx-abcm2ps-target-version 5.9.1 (29 Sep 2008)
%%abc-creator hum2abc beta
%%abcx-conversion-date 2019/03/15 08:25:35
%%humdrum-veritas 2154400478
%%humdrum-veritas-data 2621047306
%%linebreak <none>
%%barnumbers 0
L: 1/16
M: 2/4
K: Eb clef=bass
[K:clef=bass][M:2/4]C3A, C3A, | 
G,3G,A,4 | 
CA,A,G, A,3G, | 
F,3F, G,2 z2 | 
CG,G,G, A,3G, | 
F,3F,G,4 | 
[M:3/4]A,G,G, z G,2CA, G,2 z2 | 
[M:2/4]A,G,G, z G,2CA, | 
[M:3/4]G,8G,2 z2 | 
[M:2/4]C3A, C3A, | 
G,2G,G, A,2 z2 | 
CA,A,G, A,3G, | 
F,2F,F, G,2 z2 | 
CG,A,G, A,2A,G, | 
F,3F, G,2 z2 | 
CG,A,G, A,2A,G, | 
F,2F,2 G,2 z2 ]|:  
C3A, C2CA, | 
G,3G,A,4 | 
CA,A,G, A,2G,2 | 
F,3F, G,2 z2 | 
CG,A,G, A,2A,G, | 
F,3F, G,2 z2 | 
CG,A,G, A,2A,G, | 
F,3F, G,2 z2 | 
[M:3/4]G,3G, G,2CA, G,2 z2 | 
[M:2/4]G,3G, G,2CA, | 
[M:3/4]G,8G,2 z2 :|]  



